symbols/web/manage_search/materialsymbolsrounded/manage_search_grad200_24px.svg

<svg xmlns="http://www.w3.org/2000/svg" height="24" width="24"><path d="M2.4 9.1q-.55 0-.938-.388-.387-.387-.387-.937t.387-.938q.388-.387.938-.387h2.85q.55 0 .938.387.387.388.387.938 0 .55-.387.937Q5.8 9.1 5.25 9.1Zm0 5.2q-.55 0-.938-.388-.387-.387-.387-.937t.387-.938q.388-.387.938-.387h2.85q.55 0 .938.387.387.388.387.938 0 .55-.387.937-.388.388-.938.388Zm17.75 4.325L17.125 15.6q-.675.425-1.437.637-.763.213-1.563.213-2.375 0-4.037-1.663-1.663-1.662-1.663-4.037t1.663-4.037Q11.75 5.05 14.125 5.05t4.038 1.663q1.662 1.662 1.662 4.037 0 .8-.212 1.562-.213.763-.638 1.438L22 16.775q.375.375.375.925t-.375.925q-.375.375-.925.375t-.925-.375ZM14.125 13.8q1.275 0 2.163-.888.887-.887.887-2.162t-.887-2.163Q15.4 7.7 14.125 7.7t-2.162.887q-.888.888-.888 2.163t.888 2.162q.887.888 2.162.888ZM2.4 19.55q-.55 0-.938-.387-.387-.388-.387-.938 0-.55.387-.937.388-.388.938-.388h7.95q.55 0 .938.388.387.387.387.937t-.387.938q-.388.387-.938.387Z"/></svg>

<svg xmlns="http://www.w3.org/2000/svg" height="24" width="24"><path d="M2.4 9.1Q1.85 9.1 1.462 8.712Q1.075 8.325 1.075 7.775Q1.075 7.225 1.462 6.837Q1.85 6.45 2.4 6.45H5.25Q5.8 6.45 6.188 6.837Q6.575 7.225 6.575 7.775Q6.575 8.325 6.188 8.712Q5.8 9.1 5.25 9.1ZM2.4 14.3Q1.85 14.3 1.462 13.912Q1.075 13.525 1.075 12.975Q1.075 12.425 1.462 12.037Q1.85 11.65 2.4 11.65H5.25Q5.8 11.65 6.188 12.037Q6.575 12.425 6.575 12.975Q6.575 13.525 6.188 13.912Q5.8 14.3 5.25 14.3ZM20.15 18.625 17.125 15.6Q16.45 16.025 15.688 16.237Q14.925 16.45 14.125 16.45Q11.75 16.45 10.088 14.787Q8.425 13.125 8.425 10.75Q8.425 8.375 10.088 6.713Q11.75 5.05 14.125 5.05Q16.5 5.05 18.163 6.713Q19.825 8.375 19.825 10.75Q19.825 11.55 19.613 12.312Q19.4 13.075 18.975 13.75L22 16.775Q22.375 17.15 22.375 17.7Q22.375 18.25 22 18.625Q21.625 19 21.075 19Q20.525 19 20.15 18.625ZM14.125 13.8Q15.4 13.8 16.288 12.912Q17.175 12.025 17.175 10.75Q17.175 9.475 16.288 8.587Q15.4 7.7 14.125 7.7Q12.85 7.7 11.963 8.587Q11.075 9.475 11.075 10.75Q11.075 12.025 11.963 12.912Q12.85 13.8 14.125 13.8ZM2.4 19.55Q1.85 19.55 1.462 19.163Q1.075 18.775 1.075 18.225Q1.075 17.675 1.462 17.288Q1.85 16.9 2.4 16.9H10.35Q10.9 16.9 11.288 17.288Q11.675 17.675 11.675 18.225Q11.675 18.775 11.288 19.163Q10.9 19.55 10.35 19.55Z"/></svg>
